gama.ui.shared/icons_svg/light/viewers/toggle.header.svg

<svg height="25" viewBox="-633 -3425.887 25 25" width="25" xmlns="http://www.w3.org/2000/svg"><g fill="none"><path d="m-628.66-3425.3874h16.32c2.1208 0 3.84 1.7194 3.84 3.84v16.32c0 2.1208-1.7192 3.84-3.84 3.84h-16.32c-2.1208 0-3.84-1.7192-3.84-3.84v-16.32c0-2.1206 1.7192-3.84 3.84-3.84z" fill="#fff"/><path d="m-628.66-3425.3874h16.32c2.1208 0 3.84 1.7194 3.84 3.84v16.32c0 2.1208-1.7192 3.84-3.84 3.84h-16.32c-2.1208 0-3.84-1.7192-3.84-3.84v-16.32c0-2.1206 1.7192-3.84 3.84-3.84z" stroke="#000" stroke-linecap="round" stroke-linejoin="round" stroke-width=".25"/><path d="m-614.8483-3415.9634h-11.3034c-1.15886 0-2.0983-.9394-2.0983-2.0982 0-1.1589.93944-2.0984 2.0983-2.0984h11.3034c1.1589 0 2.0983.9395 2.0983 2.0984 0 1.1588-.9394 2.0982-2.0983 2.0982z" fill="#999"/><path d="m-614.8483-3415.9634h-11.3034c-1.15886 0-2.0983-.9394-2.0983-2.0982 0-1.1589.93944-2.0984 2.0983-2.0984h11.3034c1.1589 0 2.0983.9395 2.0983 2.0984 0 1.1588-.9394 2.0982-2.0983 2.0982z"/><path d="m-628.25-3417.649h15.49998v1.68558h-15.49998z" fill="#999"/><path d="m-628.25-3417.649h15.49998v1.68558h-15.49998z"/><path d="m-617.83334-3411.6096v-3.5554h-5.33332v3.5554zm0 .8889h-5.33332v3.5557h5.33332zm-9.77776-.8889h3.55555v-3.5554h-3.55555zm0 .8889v2.2222c0 .7378.59555 1.3335 1.3333 1.3335h2.22225v-3.5557zm14.2222-.8889v-3.5554h-3.55555v3.5554zm0 .8889h-3.55555v3.5557h2.22225c.73775 0 1.3333-.5957 1.3333-1.3335zm-4.44444-5.3333v-3.5556h-5.33332v3.5556zm-9.77776 0h3.55555v-3.5556h-2.22225c-.73775 0-1.3333.5956-1.3333 1.3333zm14.2222 0v-2.2223c0-.7377-.59555-1.3333-1.3333-1.3333h-2.22225v3.5556zm-12.8889-4.4445h11.5556c1.2266 0 2.2222.9955 2.2222 2.2222v9.7778c0 1.2265-.9956 2.2222-2.2222 2.2222h-11.5556c-1.2266 0-2.2222-.9957-2.2222-2.2222v-9.7778c0-1.2267.9956-2.2222 2.2222-2.2222z" fill="#66727e"/></g></svg>

<?xml version="1.0" encoding="UTF-8" standalone="no"?>
<!DOCTYPE svg PUBLIC "-//W3C//DTD SVG 1.1//EN" "http://www.w3.org/Graphics/SVG/1.1/DTD/svg11.dtd">
<svg xmlns:dc="http://purl.org/dc/elements/1.1/" xmlns:xl="http://www.w3.org/1999/xlink" version="1.1" xmlns="http://www.w3.org/2000/svg" viewBox="-633 -3425.8874 25 25" width="25" height="25">
  <defs/>
  <g id="SOURCES" stroke-dasharray="none" stroke="none" stroke-opacity="1" fill="none" fill-opacity="1">
    <title>SOURCES</title>
    <g id="SOURCES_Calque_2">
      <title>Calque 2</title>
      <g id="Graphic_9878">
        <path d="M -628.66 -3425.3874 L -612.34 -3425.3874 C -610.2192 -3425.3874 -608.5 -3423.668 -608.5 -3421.5474 L -608.5 -3405.2274 C -608.5 -3403.1066 -610.2192 -3401.3874 -612.34 -3401.3874 L -628.66 -3401.3874 C -630.7808 -3401.3874 -632.5 -3403.1066 -632.5 -3405.2274 L -632.5 -3421.5474 C -632.5 -3423.668 -630.7808 -3425.3874 -628.66 -3425.3874 Z" fill="white"/>
        <path d="M -628.66 -3425.3874 L -612.34 -3425.3874 C -610.2192 -3425.3874 -608.5 -3423.668 -608.5 -3421.5474 L -608.5 -3405.2274 C -608.5 -3403.1066 -610.2192 -3401.3874 -612.34 -3401.3874 L -628.66 -3401.3874 C -630.7808 -3401.3874 -632.5 -3403.1066 -632.5 -3405.2274 L -632.5 -3421.5474 C -632.5 -3423.668 -630.7808 -3425.3874 -628.66 -3425.3874 Z" stroke="black" stroke-linecap="round" stroke-linejoin="round" stroke-width=".25"/>
      </g>
      <g id="Group_9879">
        <g id="Graphic_9881">
          <path d="M -614.8483 -3415.9634 L -626.1517 -3415.9634 C -627.31056 -3415.9634 -628.25 -3416.9028 -628.25 -3418.0616 L -628.25 -3418.0616 C -628.25 -3419.2205 -627.31056 -3420.16 -626.1517 -3420.16 L -614.8483 -3420.16 C -613.6894 -3420.16 -612.75 -3419.2205 -612.75 -3418.0616 L -612.75 -3418.0616 C -612.75 -3416.9028 -613.6894 -3415.9634 -614.8483 -3415.9634 Z" fill="#999"/>
          <path d="M -614.8483 -3415.9634 L -626.1517 -3415.9634 C -627.31056 -3415.9634 -628.25 -3416.9028 -628.25 -3418.0616 L -628.25 -3418.0616 C -628.25 -3419.2205 -627.31056 -3420.16 -626.1517 -3420.16 L -614.8483 -3420.16 C -613.6894 -3420.16 -612.75 -3419.2205 -612.75 -3418.0616 L -612.75 -3418.0616 C -612.75 -3416.9028 -613.6894 -3415.9634 -614.8483 -3415.9634 Z" stroke="#65727e" stroke-linecap="round" stroke-linejoin="round" stroke-width="0"/>
        </g>
        <g id="Graphic_9880">
          <rect x="-628.25" y="-3417.649" width="15.49998" height="1.6855797" fill="#999"/>
          <rect x="-628.25" y="-3417.649" width="15.49998" height="1.6855797" stroke="#65727e" stroke-linecap="round" stroke-linejoin="round" stroke-width="0"/>
        </g>
      </g>
      <g id="Group_9876">
        <title>table</title>
        <g id="Graphic_9877">
          <path d="M -617.83334 -3411.6096 L -617.83334 -3415.165 L -623.16666 -3415.165 L -623.16666 -3411.6096 Z M -617.83334 -3410.7207 L -623.16666 -3410.7207 L -623.16666 -3407.165 L -617.83334 -3407.165 Z M -627.6111 -3411.6096 L -624.05555 -3411.6096 L -624.05555 -3415.165 L -627.6111 -3415.165 Z M -627.6111 -3410.7207 L -627.6111 -3408.4985 C -627.6111 -3407.7607 -627.01555 -3407.165 -626.2778 -3407.165 L -624.05555 -3407.165 L -624.05555 -3410.7207 Z M -613.3889 -3411.6096 L -613.3889 -3415.165 L -616.94445 -3415.165 L -616.94445 -3411.6096 Z M -613.3889 -3410.7207 L -616.94445 -3410.7207 L -616.94445 -3407.165 L -614.7222 -3407.165 C -613.98445 -3407.165 -613.3889 -3407.7607 -613.3889 -3408.4985 Z M -617.83334 -3416.054 L -617.83334 -3419.6096 L -623.16666 -3419.6096 L -623.16666 -3416.054 Z M -627.6111 -3416.054 L -624.05555 -3416.054 L -624.05555 -3419.6096 L -626.2778 -3419.6096 C -627.01555 -3419.6096 -627.6111 -3419.014 -627.6111 -3418.2763 Z M -613.3889 -3416.054 L -613.3889 -3418.2763 C -613.3889 -3419.014 -613.98445 -3419.6096 -614.7222 -3419.6096 L -616.94445 -3419.6096 L -616.94445 -3416.054 Z M -626.2778 -3420.4985 L -614.7222 -3420.4985 C -613.4956 -3420.4985 -612.5 -3419.503 -612.5 -3418.2763 L -612.5 -3408.4985 C -612.5 -3407.272 -613.4956 -3406.2763 -614.7222 -3406.2763 L -626.2778 -3406.2763 C -627.5044 -3406.2763 -628.5 -3407.272 -628.5 -3408.4985 L -628.5 -3418.2763 C -628.5 -3419.503 -627.5044 -3420.4985 -626.2778 -3420.4985 Z" fill="#66727e"/>
        </g>
      </g>
    </g>
  </g>
</svg>
